assets/svgs/misc/practical-list-small.svg

<?xml version="1.0" encoding="iso-8859-1"?>
<!-- Generator: Adobe Illustrator 19.0.1, SVG Export Plug-In . SVG Version: 6.00 Build 0)  -->
<svg version="1.1" xmlns="http://www.w3.org/2000/svg" xmlns:xlink="http://www.w3.org/1999/xlink" x="0px" y="0px"
	 viewBox="0 0 63 77" enable-background="new 0 0 63 77" xml:space="preserve">
<g id="_x31_-_Blue_Dog">
	<g id="Layer_2" display="none" opacity="0.4">
	</g>
</g>
<g id="_x32_-_Options">
	<g id="medication">
	</g>
	<g id="talking">
	</g>
	<g id="practical">
		<g id="mirror_2_">
		</g>
	</g>
</g>
<g id="_x33_-_Practical_Intro">
	<g id="dog-side_2_">
	</g>
	<g id="List">
	</g>
</g>
<g id="_x34_-_Practical_List">
</g>
<g id="_x35_-_Support_Locations">
</g>
<g id="_x36_-Shy_Dog">
</g>
<g id="_x37_-Better_Dog">
</g>
<g id="_x38_-Therapist_Dog">
</g>
<g id="_x39_-_Therapy_Details">
	<g id="text_6_">
	</g>
</g>
<g id="_x31_0-Combining_Therapies">
	<g id="text_7_">
	</g>
	<g id="Isometric_Grid">
	</g>
	<g id="chair_3_">
	</g>
</g>
<g id="_x31_1-Medication_Script">
	<rect x="0.5" y="0.5" fill="#F5F5F5" stroke="#BDBDBD" stroke-miterlimit="10" width="62" height="76"/>
	<polyline fill="none" stroke="#BDBDBD" stroke-linecap="round" stroke-linejoin="round" stroke-miterlimit="10" points="
		28.812,10.438 30.271,12.186 36.833,7.481 	"/>
	<line id="line_9_" fill="none" stroke="#BDBDBD" stroke-miterlimit="10" x1="19" y1="23.5" x2="53" y2="23.5"/>
	<line id="line_8_" fill="none" stroke="#BDBDBD" stroke-miterlimit="10" x1="19" y1="33.5" x2="53" y2="33.5"/>
	<line id="line_7_" fill="none" stroke="#BDBDBD" stroke-miterlimit="10" x1="19" y1="43.5" x2="53" y2="43.5"/>
	<line id="line_6_" fill="none" stroke="#BDBDBD" stroke-miterlimit="10" x1="19" y1="53.5" x2="53" y2="53.5"/>
	<line id="line_5_" fill="none" stroke="#BDBDBD" stroke-miterlimit="10" x1="19" y1="63.5" x2="53" y2="63.5"/>
	<path id="point_9_" fill="#BDBDBD" d="M10,23.283C10,23.679,9.679,24,9.283,24H7.717C7.321,24,7,23.679,7,23.283v-1.565
		C7,21.321,7.321,21,7.717,21h1.565C9.679,21,10,21.321,10,21.717V23.283z"/>
	<path id="point_8_" fill="#BDBDBD" d="M10,34.283C10,34.679,9.679,35,9.283,35H7.717C7.321,35,7,34.679,7,34.283v-1.565
		C7,32.321,7.321,32,7.717,32h1.565C9.679,32,10,32.321,10,32.717V34.283z"/>
	<path id="point_7_" fill="#BDBDBD" d="M10,44.283C10,44.679,9.679,45,9.283,45H7.717C7.321,45,7,44.679,7,44.283v-1.565
		C7,42.321,7.321,42,7.717,42h1.565C9.679,42,10,42.321,10,42.717V44.283z"/>
	<path id="point_6_" fill="#BDBDBD" d="M10,54.283C10,54.679,9.679,55,9.283,55H7.717C7.321,55,7,54.679,7,54.283v-1.565
		C7,52.321,7.321,52,7.717,52h1.565C9.679,52,10,52.321,10,52.717V54.283z"/>
	<path id="point_5_" fill="#BDBDBD" d="M10,64.283C10,64.679,9.679,65,9.283,65H7.717C7.321,65,7,64.679,7,64.283v-1.565
		C7,62.321,7.321,62,7.717,62h1.565C9.679,62,10,62.321,10,62.717V64.283z"/>
</g>
<g id="_x31_2-Dog_With_Medication">
</g>
<g id="_x31_3-Medication_Check_Ups">
</g>
<g id="_x31_4-Medication_Side_Effects">
	<g id="shy_dog_1_">
	</g>
</g>
</svg>

<svg xmlns="http://www.w3.org/2000/svg" viewBox="0 0 63 77" enable-background="new 0 0 63 77"><g><path fill="#F5F5F5" stroke="#BDBDBD" stroke-miterlimit="10" d="M.5.5h62v76H.5z"/><path fill="none" stroke="#BDBDBD" stroke-miterlimit="10" d="M28.8 10.44l1.47 1.75 6.56-4.72" stroke-linecap="round" stroke-linejoin="round"/><path fill="none" stroke="#BDBDBD" stroke-miterlimit="10" d="M19 23.5h34"/><path fill="none" stroke="#BDBDBD" stroke-miterlimit="10" d="M19 33.5h34"/><path fill="none" stroke="#BDBDBD" stroke-miterlimit="10" d="M19 43.5h34"/><path fill="none" stroke="#BDBDBD" stroke-miterlimit="10" d="M19 53.5h34"/><path fill="none" stroke="#BDBDBD" stroke-miterlimit="10" d="M19 63.5h34"/><path fill="#BDBDBD" d="M10 23.28c0 .4-.32.72-.72.72H7.72c-.4 0-.72-.32-.72-.72v-1.56c0-.4.32-.72.72-.72h1.56c.4 0 .72.32.72.72v1.56z"/><path fill="#BDBDBD" d="M10 34.28c0 .4-.32.72-.72.72H7.72c-.4 0-.72-.32-.72-.72v-1.56c0-.4.32-.72.72-.72h1.56c.4 0 .72.32.72.72v1.56z"/><path fill="#BDBDBD" d="M10 44.28c0 .4-.32.72-.72.72H7.72c-.4 0-.72-.32-.72-.72v-1.56c0-.4.32-.72.72-.72h1.56c.4 0 .72.32.72.72v1.56z"/><path fill="#BDBDBD" d="M10 54.28c0 .4-.32.72-.72.72H7.72c-.4 0-.72-.32-.72-.72v-1.56c0-.4.32-.72.72-.72h1.56c.4 0 .72.32.72.72v1.56z"/><path fill="#BDBDBD" d="M10 64.28c0 .4-.32.72-.72.72H7.72c-.4 0-.72-.32-.72-.72v-1.56c0-.4.32-.72.72-.72h1.56c.4 0 .72.32.72.72v1.56z"/></g></svg>
